images/ProcessIcons/Wireframe.svg

<svg width="24" height="24" viewBox="0 0 24 24" fill="none" xmlns="http://www.w3.org/2000/svg">
<g clip-path="url(#clip0_9507_2400)">
<path d="M16.8921 0.4H7.10788C6.15441 0.4 5.4 1.18407 5.4 2.12821V21.8718C5.4 22.8159 6.15441 23.6 7.10788 23.6H16.8921C17.8456 23.6 18.6 22.8159 18.6 21.8718V2.12821C18.6 1.18407 17.8456 0.4 16.8921 0.4Z" stroke="black" stroke-width="1.2" stroke-linecap="round" stroke-linejoin="round"/>
<path d="M6.58401 19.3709H17.416M17.416 4.62891H6.58401M12 4.62891V19.3709M15.708 16.2499H17.416M13.708 7.74991H12M14.708 8.74991V10.9999M14.708 12.9999V15.2499M13.708 6.74991H15.708V8.74991H13.708V6.74991ZM13.708 10.9999H15.708V12.9999H13.708V10.9999ZM13.708 15.2499H15.708V17.2499H13.708V15.2499Z" stroke="black" stroke-linecap="round" stroke-linejoin="round"/>
</g>
<defs>
<clipPath id="clip0_9507_2400">
<rect width="24" height="24" fill="white"/>
</clipPath>
</defs>
</svg>

<svg xmlns="http://www.w3.org/2000/svg" width="24" height="24" fill="none" xmlns:v="https://vecta.io/nano"><g clip-path="url(#A)" stroke="#000" stroke-linejoin="round"><path d="M16.892.4H7.108C6.154.4 5.4 1.184 5.4 2.128v19.744c0 .944.754 1.728 1.708 1.728h9.784c.954 0 1.708-.784 1.708-1.728V2.128C18.6 1.184 17.846.4 16.892.4z" stroke-width="1.2"/><path d="M6.584 19.371h10.832m0-14.742H6.584m5.416 0v14.742m3.708-3.121h1.708m-3.708-8.5H12m2.708 1V11m0 2v2.25m-1-8.5h2v2h-2v-2zm0 4.25h2v2h-2v-2zm0 4.25h2v2h-2v-2z" stroke-linecap="round"/></g><defs><clipPath id="A"><path fill="#fff" d="M0 0h24v24H0z"/></clipPath></defs></svg>
